svg/icon/xp.svg

<svg xmlns="http://www.w3.org/2000/svg" xmlns:xlink="http://www.w3.org/1999/xlink" width="32" height="32" viewBox="0 0 32 32">
  <defs>
    <linearGradient id="xp-c" x1="50%" x2="50%" y1="0%" y2="100%">
      <stop offset="0%" stop-color="#FFF" stop-opacity=".5"/>
      <stop offset="100%" stop-opacity=".5"/>
    </linearGradient>
    <circle id="xp-b" cx="16" cy="15" r="15"/>
    <filter id="xp-a" width="111.7%" height="111.7%" x="-5.8%" y="-4.2%" filterUnits="objectBoundingBox">
      <feOffset dy=".5" in="SourceAlpha" result="shadowOffsetOuter1"/>
      <feGaussianBlur in="shadowOffsetOuter1" result="shadowBlurOuter1" stdDeviation=".5"/>
      <feComposite in="shadowBlurOuter1" in2="SourceAlpha" operator="out" result="shadowBlurOuter1"/>
      <feColorMatrix in="shadowBlurOuter1" values="0 0 0 0 0   0 0 0 0 0   0 0 0 0 0  0 0 0 0.199473505 0"/>
    </filter>
    <path id="xp-e" d="M14.7898706,22 L12.9915044,22 L11.9102187,17.7505241 L14.5553537,16.3678135 L15.416392,18.8284488 L16.0574938,15.5830887 L19.5718374,13.7460463 L19.37802,14.721719 L21.4088131,14.740991 C22.1917828,14.7285122 22.7991947,14.4640944 23.231049,13.9477378 C23.6629033,13.4313811 23.8678306,12.7372937 23.8458309,11.8654757 C23.8424109,11.7528256 23.8307562,11.640582 23.8109614,11.5296556 L26.5405753,10.1031954 C26.918677,10.7984641 27.0633984,11.6167119 26.9747395,12.5579386 C26.8285148,13.929721 26.2357326,15.0274497 25.1963931,15.8511246 C24.1570535,16.6747995 22.832451,17.086637 21.2225856,17.086637 L18.917346,17.077001 L17.940339,22 L14.7898706,22 Z M15.211385,11.0092009 L16.9613519,11.0092009 L14.2638576,14.8351358 L7.60454557,18.3161684 L10.071593,14.8269397 L7.70046431,8.00011076 L11.1802683,8.00011076 L12.4097221,12.7885381 L13.4615282,11.0092009 L15.211385,11.0092009 L13.4614182,11.0092009 L15.3406333,8 L17.556444,8 L22.6823763,8.009636 C23.8467476,8.04205136 24.8018649,8.35121558 25.5477284,8.93712866 L22.7480454,10.4005823 C22.6792649,10.3879967 22.6098095,10.3794905 22.5400382,10.3751078 L20.2457985,10.3558358 L19.9453925,11.8648112 L16.4288489,13.7034042 L16.9612419,11.0092009 L15.211385,11.0092009 Z M5.78571961,20.9518912 L11.1126192,18.1674196 L8.76525023,22 L5,22 L5.76690986,20.9153409 L5.78571961,20.9518912 Z"/>
    <filter id="xp-d" width="115.9%" height="125%" x="-8%" y="-8.9%" filterUnits="objectBoundingBox">
      <feOffset dy=".5" in="SourceAlpha" result="shadowOffsetOuter1"/>
      <feGaussianBlur in="shadowOffsetOuter1" result="shadowBlurOuter1" stdDeviation=".5"/>
      <feColorMatrix in="shadowBlurOuter1" values="0 0 0 0 0   0 0 0 0 0   0 0 0 0 0  0 0 0 0.204257246 0"/>
    </filter>
  </defs>
  <g fill="none" fill-rule="evenodd">
    <use fill="#000" filter="url(#xp-a)" xlink:href="#xp-b"/>
    <use fill="#008200" xlink:href="#xp-b"/>
    <use fill="url(#xp-c)" style="mix-blend-mode:soft-light" xlink:href="#xp-b"/>
    <circle cx="16" cy="15" r="14.5" stroke="#000" stroke-opacity=".097"/>
    <g fill-rule="nonzero">
      <use fill="#000" filter="url(#xp-d)" xlink:href="#xp-e"/>
      <use fill="#FFF" fill-rule="evenodd" xlink:href="#xp-e"/>
    </g>
  </g>
</svg>

<svg height="32" width="32" xmlns="http://www.w3.org/2000/svg" xmlns:xlink="http://www.w3.org/1999/xlink"><defs><linearGradient id="c" x1="50%" x2="50%" y1="0%" y2="100%"><stop offset="0" stop-color="#fff" stop-opacity=".5"/><stop offset="1" stop-opacity=".5"/></linearGradient><circle id="b" cx="16" cy="15" r="15"/><filter id="a" height="111.7%" width="111.7%" x="-5.8%" y="-4.2%"><feOffset dy=".5" in="SourceAlpha" result="shadowOffsetOuter1"/><feGaussianBlur in="shadowOffsetOuter1" result="shadowBlurOuter1" stdDeviation=".5"/><feComposite in="shadowBlurOuter1" in2="SourceAlpha" operator="out" result="shadowBlurOuter1"/><feColorMatrix in="shadowBlurOuter1" values="0 0 0 0 0 0 0 0 0 0 0 0 0 0 0 0 0 0 0.199473505 0"/></filter><path id="e" d="M14.79 22h-1.798l-1.082-4.25 2.645-1.382.861 2.46.641-3.245 3.515-1.837-.194.976 2.03.019c.784-.012 1.391-.277 1.823-.793.432-.517.637-1.21.615-2.083a2.31 2.31 0 0 0-.035-.335l2.73-1.427c.378.695.522 1.514.434 2.455-.146 1.372-.74 2.47-1.779 3.293-1.039.824-2.364 1.236-3.973 1.236l-2.306-.01L17.94 22zm.421-10.99h1.75l-2.697 3.825-6.66 3.481 2.468-3.49L7.7 8h3.48l1.23 4.789 1.052-1.78h1.75-1.75L15.34 8h2.215l5.126.01c1.165.032 2.12.341 2.866.927l-2.8 1.464a1.773 1.773 0 0 0-.208-.026l-2.294-.02-.3 1.51-3.517 1.838.532-2.694zm-9.425 9.942l5.327-2.785L8.765 22H5l.767-1.085z"/><filter id="d" height="125%" width="115.9%" x="-8%" y="-8.9%"><feOffset dy=".5" in="SourceAlpha" result="shadowOffsetOuter1"/><feGaussianBlur in="shadowOffsetOuter1" result="shadowBlurOuter1" stdDeviation=".5"/><feColorMatrix in="shadowBlurOuter1" values="0 0 0 0 0 0 0 0 0 0 0 0 0 0 0 0 0 0 0.204257246 0"/></filter></defs><g fill="none" fill-rule="evenodd"><use fill="#000" filter="url(#a)" xlink:href="#b"/><use fill="#008200" xlink:href="#b"/><use fill="url(#c)" xlink:href="#b"/><circle cx="16" cy="15" r="14.5" stroke="#000" stroke-opacity=".097"/><g fill-rule="nonzero"><use fill="#000" filter="url(#d)" xlink:href="#e"/><use fill="#fff" fill-rule="evenodd" xlink:href="#e"/></g></g></svg>
